X:1
T:Roly Gentle
C:Kathryn Tickell
N:Incorrectly called "Tanse, Tanse" by some
S:Penwith Session 2010
S: Mike "crowdercref" <moconnor:ision.co.uk> tradtunes 2010-5-10
R:Waltz
%Q:1/4=120
L:1/8
M:3/4
K:C
|: \
D3EFA  | f2fedc | A2AGAc | E2EDEF | D2DEFd | ^c2^cAGF | A^cdAGE | D4 :|
d2defe | ecA2AG | F2FEFA | EAFAEA | d2defd |  ecA2AB  | c3Gcd   | edcAGA |
d2defd | ecA2AG | F2FEFA | EAFAEA | d2defa |  gedcAB  | c2cGcd  | edcAGE |]
